X:8649
T:Kiss Me Kate
R:reel
Z:id:hn-reel-520
M:C|
K:G
G2Bd gdBG|DEGB AE~E2|GABd gdBd|1 cBAc BGGF:|2 cBAc BG~G2||
fgag fdef|gfga bgeg|fgag fdde|fdef ~g3f|
gbaf gbag|fgag fdde|fded fded|(3Bcd ef gedB||
